common/src/main/resources/files/plugins/appcode/FileType_h.svg

<svg xmlns="http://www.w3.org/2000/svg" width="16" height="16" fill="#E57373" data-big="true" viewBox="0 0 24 24"><path d="M19.5 12.8V22h-4.8v-8.1c0-.7-.6-1.3-1.3-1.3h-2.9c-.7 0-1.3.6-1.3 1.3V22H4.5V2h4.8v6.4c.3-.1.6-.2.9-.2H15c2.5 0 4.5 2.1 4.5 4.6"/></svg>

<!--
  - The MIT License (MIT)
  -
  - Copyright (c) 2015-2024 Elior "Mallowigi" Boukhobza
  -
  - Permission is hereby granted, free of charge, to any person obtaining a copy
  - of this software and associated documentation files (the "Software"), to deal
  - in the Software without restriction, including without limitation the rights
  - to use, copy, modify, merge, publish, distribute, sublicense, and/or sell
  - copies of the Software, and to permit persons to whom the Software is
  - furnished to do so, subject to the following conditions:
  -
  - The above copyright notice and this permission notice shall be included in all
  - copies or substantial portions of the Software.
  -
  - THE SOFTWARE IS PROVIDED "AS IS", WITHOUT WARRANTY OF ANY KIND, EXPRESS OR
  - IMPLIED, INCLUDING BUT NOT LIMITED TO THE WARRANTIES OF MERCHANTABILITY,
  - FITNESS FOR A PARTICULAR PURPOSE AND NONINFRINGEMENT. IN NO EVENT SHALL THE
  - AUTHORS OR COPYRIGHT HOLDERS BE LIABLE FOR ANY CLAIM, DAMAGES OR OTHER
  - LIABILITY, WHETHER IN AN ACTION OF CONTRACT, TORT OR OTHERWISE, ARISING FROM,
  - OUT OF OR IN CONNECTION WITH THE SOFTWARE OR THE USE OR OTHER DEALINGS IN THE
  - SOFTWARE.
  -->


<svg data-big="true" xmlns="http://www.w3.org/2000/svg" version="1.1" width="16px" height="16px" viewBox="0 0 24 24"
     fill="#E57373">
  <path
    d="M19.5,12.8V22H14.7V13.9C14.7,13.2 14.1,12.6 13.4,12.6H10.5C9.8,12.6 9.2,13.2 9.2,13.9V22H4.5V2H9.3V8.4C9.6,8.3 9.9,8.2 10.2,8.2H15C17.5,8.2 19.5,10.3 19.5,12.8Z"/>
</svg>
